X:211
T:Steirische Jodler und Taenze Nr. 1 - 48 (9.)
C:traditionell
A:Salzkammergut
S:MIDI erhalten von Christian Amon. Nach einer kopie im besitz von Johann Stoeckl eines manuscriptes. Stoeckl(zitiert von Amon): "diese sammlung wurde 1935 im hause der familie Hohenlohe-Schillingfuerst gefunden. Sie wurde von einem der beiden brueder Steinegger 1866 verfasst. Die originale sind im Ausseer Kammerhofmuseum".
M:3/4
L:1/8
K:G
V:1
FG |\
A>A A2 GF | {G}B>B B2 gB | d>d d2 cA | G>G G2 FG |\
A>A A2 GF | {F}B>B B2 gB | d>d d2 cA | G4 |*
V:2
AB |\
c>c c2 BA | {B} d>d d2 bg | f>f f2 ed | B>B B2 AB |\
c>c c2 BA | {B}d>d d2 bg |f>f f2 ed | B4 |*
